X: 14
T: Young Jane
O: England
R: jig, waltz
M: 6/8
L: 1/16
Z: 2020 John Chambers <jc@trillian.mit.edu>
S: Handwritten version from my 1970's notebook
R: waltz
K: G
(3DEF \
| "G"G3AB2 "D7"A2B2d2 | "C"e6 "G"d3BA2 | "G"G3AB2 "Am"A4G2 | "C"E6  "D7"D2EF2 \
| "G"G3AB2 "D7"A2B2d2 | "C"e6 "G"d4[g2B2] | "G"G3AB2 "D7"A2G2F2 | "G"G6- G4 |]
Bc \
| "G"d3Bd2 g3fg2 | "C"e6  "Am"A4B2 | "D7"c3de2 "G"d2B2A2 | "C"G6 "D7"F4D2 \
| "G"G3AB2 "D7"A2B2d2 | "C"e6 "G"d4g2 | "G"G3AB2 "D7"A2G2F2 | "G"G6- G4 |]
